!!!!SEGMENT: pl-wnifc--6730-n--006_sowinski-wojciech--chants-religieux-de-la-pologne-op-93-o-gloriosa-domina-vierge-sainte-glorieuse.krn
!!!cenid: 18xx:4020
!!!COM: Sowiński, Wojciech
!!!COM-rismID: pe30008543
!!!CDT: ~1803-1880/03/05
!!!CNT:
!!!OTL: Chants religieux de la Pologne op. 93
!!!PDT: 1830
!!!AGN:
!!!SMS-siglum: PL-Wnifc
!!!SMS-shelfmark: 6730/n
!!!SMS-shelfwork: 006 W
!!!SMS-variant:
!!!SMS-altvar:
!!!NIFC-rismSourceID: 1001138228
!!!NIFC-islandoraID: nifc:213350
!!!URL-pdf-islandora: https://repozytorium.nifc.pl/islandora/object/nifc%3A213350/datastream/PDF/view
!!!URL-scan: https://polish.musicsources.pl/pl/lokalizacje/galeria/druki-muzyczne/16913 @EN{Scan on Polish Music Sources Website} @PL{Skany w portalu Dziedzictwo Muzyki Polskiej w otwartym dostępie}
!!!ONB-nifc: UWAGA: str. 22-24
!!!AIN: 1 calto 2 organ 2 soprn
!!!key: B-
**kern	**kern	**dynam	**kern	**text	**dynam	**kern	**text	**dynam	**kern	**text	**dynam
*part5	*part4	*part4	*part3	*part3	*part3	*part2	*part2	*part2	*part1	*part1	*part1
*staff5	*staff4	*	*staff3	*staff3	*	*staff2	*staff2	*	*staff1	*staff1	*
*I"Organo	*I"ORGUE.	*	*I"CONTRALTO.	*	*	*I"2.e DESSUS.	*	*	*I"1.er DESSUS.	*	*
*	*I'org	*	*I'Contra-A	*	*	*I'S 2	*	*	*I'S 1	*	*
*Iorgan	*Iorgan	*	*Icalto	*	*	*Isoprn	*	*	*Isoprn	*	*
*ICklav	*ICklav	*	*ICvox	*	*	*ICvox	*	*	*ICvox	*	*
*clefF4	*clefG2	*	*clefG2	*	*	*clefG2	*	*	*clefG2	*	*
*k[b-e-]	*k[b-e-]	*	*k[b-e-]	*	*	*k[b-e-]	*	*	*k[b-e-]	*	*
*B-:	*B-:	*	*B-:	*	*	*B-:	*	*	*B-:	*	*
*M4/4	*M4/4	*	*M4/4	*	*	*M4/4	*	*	*M4/4	*	*
*met(c)	*met(c)	*	*met(c)	*	*	*met(c)	*	*	*met(c)	*	*
=1	=1	=1	=1	=1	=1	=1	=1	=1	=1	=1	=1
!	!	!	!	!	!	!	!	!	!LO:TX:a:B:t=Tempo marcato.	!	!
!	!LO:TX:a:B:t=Tempo marcato.	!	!	!	!	!	!	!	!	!	!
4BB-/	4f/ 4b-	mf	1r	.	.	1r	.	.	1r	.	.
8D\L	4f/ 4b-	.	.	.	.	.	.	.	.	.	.
8F\J	.	.	.	.	.	.	.	.	.	.	.
(8B-\L	(8f/L 8dd	<	.	.	.	.	.	.	.	.	.
8A\J)	8f/J) 8cc	.	.	.	.	.	.	.	.	.	.
4F\ 4A	4f/ 4cc	[[	.	.	.	.	.	.	.	.	.
=2	=2	=2	=2	=2	=2	=2	=2	=2	=2	=2	=2
*^	*	*	*	*	*	*	*	*	*	*	*
(8A/L	4F\	8f\L 8cc	.	1r	.	.	1r	.	.	1r	.	.
8B-/	.	8dd\	.	.	.	.	.	.	.	.	.	.
8c/	4F\	8f\ 8ee-	.	.	.	.	.	.	.	.	.	.
8B-/J)	.	8dd\J	>	.	.	.	.	.	.	.	.	.
2A\	2F\	2f\ 2cc	]]	.	.	.	.	.	.	.	.	.
*v	*v	*	*	*	*	*	*	*	*	*	*	*
=3	=3	=3	=3	=3	=3	=3	=3	=3	=3	=3	=3
!	!	!	!	!	!LO:DY:a	!	!	!LO:DY:a	!LO:TX:a:t=1re. STROPHE .	!	!LO:DY:a
4BB-\ 4B-	4d/ 4f 4b-	p	4d/	Vier-	p	4f/	Vier-	p	4b-\	Vier-	p
4BB-\ 4B-	4d/ 4f 4b-	.	4d/	-ge	.	4f/	-ge	.	4b-\	-ge	.
4BB-\ 4B-	(8f/L 8dd	.	4B-/	sain-	.	(8b-/L	sain-	.	(8dd\L	sain-	.
.	8f/J) 8cc	.	.	.	.	8a/J)	.	.	8cc\J)	.	.
4F\ 4A	4f/ 4cc	.	4f/	-te	.	4a/	-te	.	4cc\	-te	.
=4	=4	=4	=4	=4	=4	=4	=4	=4	=4	=4	=4
*^	*^	*	*	*	*	*	*	*	*	*	*
!	!	!	!	!	!	!	!LO:DY:a	!	!	!LO:DY:a	!	!	!LO:DY:a
(4A/	2F\	(4cc\	4f\	<	4f/	glo-	<	4a/	glo-	<	4cc\	glo-	<
4B-/	.	4dd\	4f\	.	4f/	-ri-	.	4b-/	-ri-	.	4dd\	-ri-	.
!	!	!	!	!	!	!	!LO:DY:a	!	!	!LO:DY:a	!	!	!LO:DY:a
8A/L	8F\L	8cc/L 8ee-	4f\	[ >	4f/	-eu-	[ >	(8cc/L	-eu-	[ >	(8ee-\L	-eu-	[ >
8B-/J	8BB-\J	8b-/J 8dd	.	.	.	.	.	8b-/J)	.	.	8dd\J)	.	.
4A\)	4F\	4cc/)	4f\	.	4f/	-se	]]	4a/	-se	]]	4cc\	-se	]]
!LO:LB:g=original	!LO:LB:g=original	!LO:LB:g=original	!LO:LB:g=original	!	!LO:LB:g=original	!	!	!LO:LB:g=original	!	!	!LO:LB:g=original	!	!
*v	*v	*	*	*	*	*	*	*	*	*	*	*	*
*	*v	*v	*	*	*	*	*	*	*	*	*	*
=5	=5	=5	=5	=5	=5	=5	=5	=5	=5	=5	=5
!	!	!LO:DY:a	!	!	!LO:DY:a	!	!	!LO:DY:a	!	!	!LO:DY:a
4FF/ 4F	(8a\L 8cc	] p	8f/	é-	p	8a/	é-	p	8cc\	é-	p
.	8b-\J 8dd	.	8f/	-toi-	.	8b-/	-toi-	.	8dd\	-toi-	.
4F\ 4f	4cc\) 4ee-	.	4f^>/	-le	.	4cc^\	-le	.	4ee-^\	-le	.
8B-\L 8f	(8b-\L 8dd	.	8B-/	lu-	.	8b-/	lu-	.	8dd\	lu-	.
8F\J 8f	8a\J 8cc	.	8e-/	-mi-	.	8a/	-mi-	.	8cc\	-mi-	.
4B-\ 4d	4f\) 4b-	.	8d/	-neu-	.	8b-/	-neu-	.	8b-\	-neu-	.
.	.	.	8d/	-se	.	8b-/	-se	.	8b-\	-se	.
=6	=6	=6	=6	=6	=6	=6	=6	=6	=6	=6	=6
!	!	!	!	!	!LO:DY:a	!	!	!LO:DY:a	!	!	!LO:DY:a
4GG^/ 4G	4g^\ 4b- 4dd	f	4g/	qui	<	4b-/	qui	<	4dd\	qui	<
8EE-^/L 8E-	8g^\L 8cc	.	8e-/	ra-	.	8g/	ra-	.	8cc\	ra-	.
8CC^/J 8C	8g^\J 8ee-	.	8c/	-yon-	.	8g/	-yon-	.	8ee-\	-yon-	.
4FF^/ 4F	8f^/L 8b- 8dd	.	8f/	-nez	[	8b-/	-nez	[	8dd\	-nez	[
.	8e-^/J 8a 8cc	.	8f/	sur	.	8a/	sur	.	8cc\	sur	.
4BBB-^/ 4BB-	4d^/ 4f 4b-	.	4d^^/	nous	.	4f^^/	nous	.	4b-^^\	nous	.
=7||	=7||	=7||	=7||	=7||	=7||	=7||	=7||	=7||	=7||	=7||	=7||
!	!	!	!	!	!LO:DY:a	!	!	!LO:DY:a	!	!	!LO:DY:a
4GGG/ 4GG	4g/ 4b- 4dd	f	4g/	Du	mf	4b-/	Du	mf	4dd\	Du	mf
4GG/ 4G	4g/ 4b- 4dd	.	4g/	sé-	.	4b-/	sé-	.	4dd\	sé-	.
4DD/ 4D	4f/ 4a 4dd	.	4f/	-jour	.	4a/	-jour	.	4dd\	-jour	.
4GG/ 4G	4g/ 4b- 4dd	.	4g/	di-	.	4b-/	di-	.	4dd\	di-	.
=8	=8	=8	=8	=8	=8	=8	=8	=8	=8	=8	=8
*	*^	*	*	*	*	*	*	*	*	*	*
*	*	*^	*	*	*	*	*	*	*	*	*	*
!	!	!	!	!	!	!	!LO:DY:a	!	!	!LO:DY:a	!	!	!LO:DY:a
4AA\ 4A	4cc\	4c\	2ryy	.	4a/	-vin	f	4cc\	-vin	f	4cc\	-vin	f
!	!LO:TX:b:i:t=rall.	!	!	!	!LO:TX:a:i:t=rall.	!	!	!LO:TX:a:i:t=rall.	!	!	!LO:TX:a:i:t=rall.	!	!
4BB-\ 4B-	4dd\	4d\	.	.	8b-/	où	.	8b-\	où	.	8dd\	où	.
.	.	.	.	.	8b-/	j`as-	.	8b-\	j`as-	.	8dd\	j`as-	.
4C\ 4c	4een/	4en\	8cc\L	<	4g/	-pi-	.	(8cc\L	-pi-	.	4een\	-pi-	.
.	.	.	8b-\J	.	.	.	.	8b-\J)	.	.	.	.	.
4FF;</ 4F	4ff;/	4f\ 4a	4ryy	.	4f;/	-re	.	4a;/	-re	.	4ff;\	-re	.
!LO:LB:g=original	!LO:LB:g=original	!LO:LB:g=original	!LO:LB:g=original	!	!LO:LB:g=original	!	!	!LO:LB:g=original	!	!	!LO:LB:g=original	!	!
*	*v	*v	*v	*	*	*	*	*	*	*	*	*	*
=9	=9	=9	=9	=9	=9	=9	=9	=9	=9	=9	=9
!	!	!	!	!	!LO:DY:a	!	!	!LO:DY:a	!LO:TX:a:B:t=a tempo.	!	!LO:DY:a
4F\	(8a\L 8cc	[ p	8f/	ae-	p	8a/	ae-	p	8cc\	ae-	p
.	8b-\J) 8dd	.	8f/	-cor-	.	8b-/	-cor-	.	8dd\	-cor-	.
4F\ 4f	4cc\ 4ee-	.	4f/	-dez	.	4cc\	-dez	.	4ee-\	-dez	.
8B-\L 8f	(8b-\L 8dd	.	8B-/	un	.	8b-/	un	.	8dd\	un	.
8F\J 8e-	8a\J) 8cc	.	8e-/	sou-	.	8a/	sou-	.	8cc\	sou-	.
4B-\ 4d	4f/ 4b-	.	4d/	-rire	.	4f/	-rire	.	4b-\	-rire	.
=10	=10	=10	=10	=10	=10	=10	=10	=10	=10	=10	=10
4GG/ 4G	4g/ 4b- 4dd	f	4g^>/	à	.	4b-^>/	à	.	4dd^\	à	.
!	!	!	!	!	!LO:DY:a	!	!	!LO:DY:a	!	!	!LO:DY:a
8EE-/L 8E-	8g/L 8cc	.	8e-/	mes	f	8g/	mes	f	8cc\	mes	f
!LO:TX:a:i:t=rall.	!	!	!LO:TX:a:i:t=rall.	!	!	!LO:TX:a:i:t=rall.	!	!	!LO:TX:a:i:t=rall.	!	!
8CC/J 8C	8g/J 8ee-	.	8c/	hym-	.	8g/	hym-	.	8ee-\	hym-	.
4FF/ 4F	8f/L 8b- 8dd	.	8f/	-mes	.	8f/	-mes	.	8dd\	-mes	.
.	8e-/J 8a 8cc	.	8e-/	pour	.	8a/	pour	.	8cc\	pour	.
4BBB-/ 4BB-	4d/ 4f 4b-	.	4d;/	vous	.	4b-;/	vous	.	4b-;\	vous	.
=11	=11	=11	=11	=11	=11	=11	=11	=11	=11	=11	=11
*^	*^	*	*	*	*	*	*	*	*	*	*
!	!	!LO:TX:a:B:t=a tempo.	!	!	!	!	!	!	!	!	!	!	!
8A/L	4F\	8cc/L	4f\	f	1r	.	.	1r	.	.	1r	.	.
8B-/J	.	8dd/J	.	.	.	.	.	.	.	.	.	.	.
4c/	4F\	4ee-/	4f\	.	.	.	.	.	.	.	.	.	.
8BB-\L 8B-	2ryy	8dd/L	8f\L	.	.	.	.	.	.	.	.	.	.
8FF\J 8F	.	8a/J 8cc	8f\J	.	.	.	.	.	.	.	.	.	.
4DD/ 4D	.	4b-/	4f\	.	.	.	.	.	.	.	.	.	.
*v	*v	*	*	*	*	*	*	*	*	*	*	*	*
*	*v	*v	*	*	*	*	*	*	*	*	*	*
=12	=12	=12	=12	=12	=12	=12	=12	=12	=12	=12	=12
4GGG/ 4GG	4d^/ 4g 4b- 4dd	.	1r	.	.	1r	.	.	1r	.	.
8EE-/L 8E-	8c^/L 8cc	.	.	.	.	.	.	.	.	.	.
8CC/J 8C	8e-^/J 8ee-	.	.	.	.	.	.	.	.	.	.
8FF/L 8F	8f^/L 8b- 8dd	.	.	.	.	.	.	.	.	.	.
8FF/J 8F	8e-^/J 8a 8cc	.	.	.	.	.	.	.	.	.	.
4BBB-/ 4BB-	4d^/ 4f 4b-	.	.	.	.	.	.	.	.	.	.
!LO:LB:g=original	!LO:LB:g=original	!	!	!LO:LB:g=original	!	!	!LO:LB:g=original	!	!	!LO:LB:g=original	!
==13	==13	==13	==13	==13	==13	==13	==13	==13	==13	==13	==13
!	!	!	!	!	!LO:DY:a	!	!	!LO:DY:a	!LO:TX:a:t=2.e STROPHE.	!	!LO:DY:a
4BB-/	8r	p	4d/	O	p	4f/	O	p	4b-\	O	p
.	(8f/L	.	.	.	.	.	.	.	.	.	.
4D\ 4B-	8b-/	.	4d/	mys-	.	4f/	mys-	.	4b-\	mys-	.
.	8f/J)	.	.	.	.	.	.	.	.	.	.
4BB-/	8r	.	4B-/	-tè-	.	(8b-/L	-tè-	.	(8dd\L	-tè-	.
.	(8f/L	.	.	.	.	8a/J)	.	.	8cc\J)	.	.
4F\ 4A	8cc/	.	4f/	-re	.	4a/	-re	.	4cc\	-re	.
.	8f/J)	.	.	.	.	.	.	.	.	.	.
=14	=14	=14	=14	=14	=14	=14	=14	=14	=14	=14	=14
4BB-/	8r	.	4f/	a-	.	4a/	a-	.	4cc\	a-	.
.	(8f/L	.	.	.	.	.	.	.	.	.	.
4B-\	8dd/	.	4f/	-do-	.	4b-/	-do-	.	4dd\	-do-	.
.	8f/J)	.	.	.	.	.	.	.	.	.	.
8A\L	(8ee-\L	.	4f/	-ra-	.	(8cc\L	-ra-	.	(8ee-\L	-ra-	.
8B-\J	8dd\	.	.	.	.	8b-\J)	.	.	8dd\J)	.	.
4F\	8cc\	.	4f/	-ble	.	4a/	-ble	.	4cc\	-ble	.
.	8f\J)	.	.	.	.	.	.	.	.	.	.
=15	=15	=15	=15	=15	=15	=15	=15	=15	=15	=15	=15
!	!	!	!	!	!LO:DY:a	!	!	!LO:DY:a	!	!	!LO:DY:a
2F\ 2A	8r	.	8e-/	quel-	<	8a/	quel-	<	8cc\	quel-	<
.	(8f/L	.	8d/	-le	.	8b-/	-le	.	8dd\	-le	.
.	8cc/ 8ee-	.	4c^/	paix	[	4f^/	paix	[	4ee-^\	paix	[
.	8f/J)	.	.	.	.	.	.	.	.	.	.
8BB-\L 8B-	(8f/L 8dd	.	8B-/	i-	.	8f/	i-	.	8dd\	i-	.
8F\	8ee-/	.	8e-/	-né-	.	8a/	-né-	.	8cc\	-né-	.
8D\	8ff/	.	8d/	-fa-	.	8b-/	-fa-	.	8b-\	-fa-	.
8BB-\J	8b-/J)	.	8d/	-ble	.	8b-/	-ble	.	8b-\	-ble	.
=16	=16	=16	=16	=16	=16	=16	=16	=16	=16	=16	=16
!	!	!	!	!	!LO:DY:a	!	!	!LO:DY:a	!	!	!LO:DY:a
4GG\ 4G	4g/ 4b- 4dd	f	4g/	Ma-	f	4b-/	Ma-	f	4dd\	Ma-	f
8E-^\L	8g/L 8cc	.	8e-/	-rie	.	8g/	-rie	.	8cc\	-rie	.
8C^\J	8g/J 8ee-	.	8c/	a	.	8g/	a	.	8ee-\	a	.
4FF^\ 4F	8f/L 8b- 8dd	.	8f/	vos	.	8f/	vos	.	8dd\	vos	.
.	8e-/J 8a 8cc	.	8e-/	ge-	.	8f/	ge-	.	8cc\	ge-	.
4BB-\ 4B-	4d/ 4b-	.	4d^>/	-noux	.	4f^>/	-noux	.	4b-^\	-noux	.
!LO:LB:g=original	!LO:LB:g=original	!	!LO:LB:g=original	!	!	!LO:LB:g=original	!	!	!LO:LB:g=original	!	!
=17||	=17||	=17||	=17||	=17||	=17||	=17||	=17||	=17||	=17||	=17||	=17||
!	!	!	!	!	!LO:DY:a	!	!	!LO:DY:a	!	!	!LO:DY:a
4GG\ 4G	4d/ 4g 4b- 4dd	f	4g/	Du	f	4b-/	Du	f	4dd\	Du	f
4BB-\ 4B-	4d/ 4g 4b- 4dd	.	4g/	sé-	.	4b-/	sé-	.	4dd\	sé-	.
8D\L 8d	4d/ 4g 4b- 4dd	.	4g/	-jour	.	4b-/	-jour	.	4dd\	-jour	.
8BB-\J 8B-	.	.	.	.	.	.	.	.	.	.	.
4GG\ 4G	4d/ 4g 4b- 4dd	.	4g/	di-	.	4b-/	di-	.	4dd\	di-	.
=18	=18	=18	=18	=18	=18	=18	=18	=18	=18	=18	=18
*	*^	*	*	*	*	*	*	*	*	*	*
*	*	*^	*	*	*	*	*	*	*	*	*	*
4AA\ 4A	4cc\	4f\	4c\	.	4a/	-vin	.	4cc\	-vin	.	4cc\	-vin	.
!	!LO:TX:b:i:t=rall.	!	!	!	!LO:TX:a:i:t=rall.	!	!	!LO:TX:a:i:t=rall.	!	!	!LO:TX:a:i:t=rall.	!	!
4BB-\ 4B-	4dd\	4f\	4d\	.	8f/	ou	.	8b-\	ou	.	8dd\	ou	.
.	.	.	.	.	8f/	j`as-	.	8b-\	j`as-	.	8dd\	j`as-	.
4C\ 4c	4een/	8cc\L	4en\	sf	4c/	-pi-	.	8cc\L	-pi-	.	4een\	-pi-	.
.	.	8dd\J	.	.	.	.	.	8b-\J	.	.	.	.	.
4F;<\ 4c	4ff;/	4a\	4f\	.	4f;/	-re	.	4a;/	-re	.	4ff;\	-re	.
*	*v	*v	*v	*	*	*	*	*	*	*	*	*	*
=19	=19	=19	=19	=19	=19	=19	=19	=19	=19	=19	=19
!	!	!	!LO:TX:a:t=a tempo.	!	!LO:DY:a	!LO:TX:a:t=a tempo.	!	!LO:DY:a	!LO:TX:a:B:t=a tempo.	!	!LO:DY:a
8F\L 8f	(8a'\L 8cc	.	8f/	ac-	p	8a/	ac-	p	8cc\	ac-	p
8F\J 8f	8b-'\J 8dd	.	8f/	-cor-	.	8b-/	-cor-	.	8dd\	-cor-	.
4F^\ 4f	4cc\) 4ee-	.	4f/	-dez	.	4cc\	-dez	.	4ee-\	-dez	.
8B-\L 8f	(8b-'\L 8dd	.	8B-/	un	.	8b-/	un	.	8dd\	un	.
8F\J 8f	8a\J 8cc	.	8e-/	sou-	.	8a/	sou-	.	8cc\	sou-	.
4B-\ 4d	4f\) 4b-	.	4d/	-rire	.	4b-/	-rire	.	4b-\	-rire	.
=20	=20	=20	=20	=20	=20	=20	=20	=20	=20	=20	=20
!	!LO:TX:b:i:t=più lento.	!	!LO:TX:a:i:t=più lento.	!	!LO:DY:a	!LO:TX:a:i:t=più lento.	!	!LO:DY:a	!LO:TX:a:i:t=più lento.	!	!LO:DY:a
4GG/ 4G	4g^\ 4b- 4dd	f	4g/	à	f	4b-/	à	f	4dd\	à	f
8EE-/L 8E-	8g^\L 8cc	.	8e-/	mes	.	8g/	mes	.	8cc\	mes	.
8CC/J 8C	8g^\J 8ee-	.	8c/	hym-	.	8g/	hym-	.	8ee-\	hym-	.
8FF/L 8F	8f^/L 8b- 8dd	.	8f/	-nes	.	8b-/	-nes	.	8dd\	-nes	.
8FF/J 8F	8e-^/J 8a 8cc	.	8f/	pour	.	8a/	pour	.	8cc\	pour	.
4BBB-;</ 4BB-	4d^;/ 4b-	.	4B-;/	vous	.	4b-;/	vous	.	4b-;\	vous	.
!LO:PB:g=original	!LO:PB:g=original	!	!LO:PB:g=original	!LO:PB:g=original	!	!LO:PB:g=original	!LO:PB:g=original	!	!	!LO:PB:g=original	!
==21	==21	==21	==21	==21	==21	==21	==21	==21	==21	==21	==21
*	*^	*	*	*	*	*	*	*	*	*	*
!	!LO:TX:b:B:t=a tempo.	!	!	!	!	!	!	!	!	!	!	!
4BB-^\ 4B-	4f/	4d/	f	1r	.	.	1r	.	.	1r	.	.
4EE-^/ 4E-	8e-/L 8g	4ryy	.	.	.	.	.	.	.	.	.	.
.	8a/J	.	.	.	.	.	.	.	.	.	.	.
8DD/L 8D	8b-/L	4.f\	.	.	.	.	.	.	.	.	.	.
8EE-/ 8E-	8a/	.	.	.	.	.	.	.	.	.	.	.
8DD/ 8D	8b-/J	.	.	.	.	.	.	.	.	.	.	.
8CC/J 8C	8ee-/	8g\	.	.	.	.	.	.	.	.	.	.
=22	=22	=22	=22	=22	=22	=22	=22	=22	=22	=22	=22	=22
*	*	*^	*	*	*	*	*	*	*	*	*	*
2FF\ 2F	2a/	2c\	4.f\	sf	1r	.	.	1r	.	.	1r	.	.
.	.	.	8e-\	.	.	.	.	.	.	.	.	.	.
4BBB-/ 4BB-	4b-/	4d\	2ryy	.	.	.	.	.	.	.	.	.	.
4r	4r	4ryy	.	.	.	.	.	.	.	.	.	.	.
*	*v	*v	*v	*	*	*	*	*	*	*	*	*	*
=23	=23	=23	=23	=23	=23	=23	=23	=23	=23	=23	=23
!	!LO:TUP:b	!	!	!	!LO:DY:a	!	!	!LO:DY:a	!LO:TX:a:t=3.e STROPHE.	!	!LO:DY:a
4BB-\ 4B-	(12d/L 12b-	p	4d/	Ray-	p	4f/	Ray-	p	4b-\	Ray-	p
.	12f/)	.	.	.	.	.	.	.	.	.	.
.	12f'/J	.	.	.	.	.	.	.	.	.	.
*	*Xtuplet	*	*	*	*	*	*	*	*	*	*
4BB-\ 4B-	(12d/L 12b-	.	4d/	-on	.	4f/	-on	.	4b-\	-on	.
.	12f/)	.	.	.	.	.	.	.	.	.	.
.	12f'/J	.	.	.	.	.	.	.	.	.	.
4BB-\ 4F	(12dd/L	.	4B-/	nau-	.	(8b-/L	nau-	.	(8dd\L	nau-	.
.	12f/)	.	.	.	.	.	.	.	.	.	.
.	.	.	.	.	.	8a/J)	.	.	8cc\J)	.	.
.	12f'/J	.	.	.	.	.	.	.	.	.	.
4F\ 4A	(12cc/L	.	4f/	-te	.	4a/	-te	.	4cc\	-te	.
.	12f/)	.	.	.	.	.	.	.	.	.	.
.	12f'/J	.	.	.	.	.	.	.	.	.	.
=24	=24	=24	=24	=24	=24	=24	=24	=24	=24	=24	=24
*	*tuplet	*	*	*	*	*	*	*	*	*	*
!	!LO:TUP:b	!	!	!	!	!	!	!	!	!	!
4BB-\ 4F 4A	(12cc/L	.	4f/	a-	.	4a/	a-	.	4cc\	a-	.
.	12f/)	.	.	.	.	.	.	.	.	.	.
.	12f'/J	.	.	.	.	.	.	.	.	.	.
*	*Xtuplet	*	*	*	*	*	*	*	*	*	*
4BB-\ 4F 4B-	(12dd/L	.	4f/	-do-	.	4b-/	-do-	.	4dd\	-do-	.
.	12f/)	.	.	.	.	.	.	.	.	.	.
.	12f'/J	.	.	.	.	.	.	.	.	.	.
4FF/	(12ee-/L	.	(8a/L	-ré-	.	(8cc/L	-ré-	.	(8ee-\L	-ré-	.
.	12f/)	.	.	.	.	.	.	.	.	.	.
.	.	.	8b-/J)	.	.	8b-/J)	.	.	8dd\J)	.	.
.	12dd'/J	.	.	.	.	.	.	.	.	.	.
4F\ 4A	(12cc/L	.	4f/	-e	.	4a/	-e	.	4cc\	-e	.
.	12f/)	.	.	.	.	.	.	.	.	.	.
.	12f'/J	.	.	.	.	.	.	.	.	.	.
!LO:LB:g=original	!LO:LB:g=original	!	!LO:LB:g=original	!	!	!LO:LB:g=original	!	!	!LO:LB:g=original	!	!
=25	=25	=25	=25	=25	=25	=25	=25	=25	=25	=25	=25
!	!	!	!	!	!LO:DY:a	!	!	!LO:DY:a	!	!	!LO:DY:a
2BB-\ 2F 2A	(8f\L 8cc	<	4f/	des	<	(8a\L	des	<	(8cc\L	des	<
.	8b-\J 8dd	.	.	.	.	8b-\J)	.	.	8dd\J)	.	.
.	4cc\) 4ee-	.	8f/	an-	.	8cc\	an-	.	8ee-\	an-	.
.	.	.	8f/	-ges	.	8cc\	-ges	.	8ee-\	-ges	.
!	!	!	!	!	!LO:DY:a	!	!	!LO:DY:a	!	!	!LO:DY:a
8BB-\L 8B-	(8f\L 8dd	[	8B-/	en-	[ >	8f/	en-	[ >	8dd\	en-	[ >
8F\J	8a\J) 8cc	.	8e-/	-tou-	.	8a/	-tou-	.	8cc\	-tou-	.
8D/L	4b-/	.	8d/	-ré-	.	8b-/	-ré-	.	8b-\	-ré-	.
8BB-/J	.	.	8d/	-e	]]	8b-/	-e	]]	8b-\	-e	]]
=26	=26	=26	=26	=26	=26	=26	=26	=26	=26	=26	=26
!	!	!	!	!	!LO:DY:a	!	!	!LO:DY:a	!	!	!LO:DY:a
4GG/ 4G	12r	f	4g/	je-	f	4b-/	je-	f	4dd\	je-	f
*	*tuplet	*	*	*	*	*	*	*	*	*	*
.	12b-/L 12dd	.	.	.	.	.	.	.	.	.	.
.	12g/J	.	.	.	.	.	.	.	.	.	.
8E-\L	8cc\L	.	8e-/	-tez	.	8g/	-tez	.	8cc\	-tez	.
8C\J	8g\J 8ee-	.	8c/	les	.	8g/	les	.	8ee-\	les	.
!	!LO:TUP:b	!	!	!	!	!	!	!	!	!	!
(4FF/ 4F	12dd/L	>	8f/	yeux	.	8b-/	yeux	.	8dd\	yeux	.
.	12f/	.	.	.	.	.	.	.	.	.	.
.	.	.	8f/	sur	.	8a/	sur	.	8cc\	sur	.
.	12e-/J 12cc	.	.	.	.	.	.	.	.	.	.
4BB-/) 4F	4d/ 4b-	]	4B-^>/	nous	.	4b-^/	nous	.	4b-^\	nous	.
=27||	=27||	=27||	=27||	=27||	=27||	=27||	=27||	=27||	=27||	=27||	=27||
!	!	!LO:DY:a	!	!	!LO:DY:a	!	!	!LO:DY:a	!	!	!LO:DY:a
4GG/ 4G	12r	f	4g/	des-	f	4b-/	des-	f	4dd\	des-	f
!	!LO:TUP:b	!	!	!	!	!	!	!	!	!	!
.	12b-/L 12dd	.	.	.	.	.	.	.	.	.	.
.	12g/J	.	.	.	.	.	.	.	.	.	.
*	*Xtuplet	*	*	*	*	*	*	*	*	*	*
4GG/ 4G	12r	.	4g/	-cen-	.	4b-/	-cen-	.	4dd\	-cen-	.
.	12b-/L 12dd	.	.	.	.	.	.	.	.	.	.
.	12g/J	.	.	.	.	.	.	.	.	.	.
4DD^/ 4D	12r	.	4f#X/	-dez	.	4a/	-dez	.	4dd\	-dez	.
.	12a/L 12dd	.	.	.	.	.	.	.	.	.	.
.	12f#X/J	.	.	.	.	.	.	.	.	.	.
4GG^/ 4G	12r	.	4g/	ma	.	4b-/	ma	.	4dd\	ma	.
.	12b-/L 12dd	.	.	.	.	.	.	.	.	.	.
.	12g/J	.	.	.	.	.	.	.	.	.	.
!LO:LB:g=original	!LO:LB:g=original	!	!LO:LB:g=original	!	!	!LO:LB:g=original	!	!	!LO:LB:g=original	!	!
=28	=28	=28	=28	=28	=28	=28	=28	=28	=28	=28	=28
4AA\ 4A	12r	.	4a/	cé-	.	4cc/	cé-	.	4cc\	cé-	.
.	12cc/L	.	.	.	.	.	.	.	.	.	.
.	12fn/J	.	.	.	.	.	.	.	.	.	.
!	!	!	!LO:TX:a:i:t=rit.	!	!	!LO:TX:a:i:t=rit.	!	!	!LO:TX:a:i:t=rit.	!	!
4BB-\ 4B-	12r	.	8f/	-les	.	8b-/	-les	.	8dd\	-les	.
.	12dd/L	.	.	.	.	.	.	.	.	.	.
.	.	.	8f/	te	.	8b-/	te	.	8dd\	te	.
.	12d/J	.	.	.	.	.	.	.	.	.	.
4C\ 4c	8een\L	sf >	4c/	mè-	.	(8cc/L	mè-	.	4een\	mè-	.
.	8b-\J	.	.	.	.	8b-/J)	.	.	.	.	.
4F;<\ 4c	4a;\ 4ff	]	4fn;/	-re	.	4a;/	-re	.	4ff;\	-re	.
=29	=29	=29	=29	=29	=29	=29	=29	=29	=29	=29	=29
!	!	!	!	!	!LO:DY:a	!	!	!LO:DY:a	!	!	!LO:DY:a
4F\ 4e-	12cc/L	p <	8f/	au	p	8a/	au	p	8cc\	au	p
.	12f/	.	.	.	.	.	.	.	.	.	.
.	.	.	8f/	eri	.	8b-/	eri	.	8dd\	eri	.
.	12dd/J	.	.	.	.	.	.	.	.	.	.
!LO:TUP:a	!	!	!	!	!	!	!	!	!	!	!
12F\L 12e-	12ee-/L	.	4f^>/	de	.	4cc^\	de	.	4ee-^\	de	.
12r	12f/	.	.	.	.	.	.	.	.	.	.
12F\J 12e-	12cc/J	.	.	.	.	.	.	.	.	.	.
8F\L 8d	12dd/L	[ >	8B-/	la	.	8b-/	la	.	8dd\	la	.
.	12f/	.	.	.	.	.	.	.	.	.	.
8F\J 8A	.	.	8e-/	mi-	.	8a/	mi-	.	8cc\	mi-	.
.	12cc/J	.	.	.	.	.	.	.	.	.	.
4F\ 4B-	12g/L	.	8d/	-sè-	.	8b-/	-sè-	.	8b-\	-sè-	.
.	12f/	.	.	.	.	.	.	.	.	.	.
.	.	.	8d/	-re	.	8b-/	-re	.	8b-\	-re	.
.	12dd/J	]]	.	.	.	.	.	.	.	.	.
=30	=30	=30	=30	=30	=30	=30	=30	=30	=30	=30	=30
!	!LO:TX:b:t=élargissant .	!	!	!	!LO:DY:a	!	!	!LO:DY:a	!LO:TX:a:i:t=élargissant .	!	!LO:DY:a
4GG/ 4G	4g/ 4b- 4dd	f	4g/	qui	f	4b-/	qui	f	4dd\	qui	f
8EE-^/L 8E-	8g^/L 8cc	.	8e-/	s`é-	.	8g/	s`é-	.	8cc\	s`é-	.
8CC^/J 8C	8g^/J 8ee-	.	8c/	-le-	.	8g/	-le-	.	8ee-\	-le-	.
8FF/L 8F	8f^/L 8b- 8dd	.	8f/	-ve	.	8b-/	-ve	.	8dd\	-ve	.
8FF/J 8F	8d^/J 8a 8cc	.	8e-/	vers	.	8a/	vers	.	8cc\	vers	.
4BBB-;</ 4BB-	4d^>;</ 4b-	.	4d;/	vous	.	4b-;/	vous	.	4b-;\	vous	.
==	==	==	==	==	==	==	==	==	==	==	==
*-	*-	*-	*-	*-	*-	*-	*-	*-	*-	*-	*-
!!!RDF**kern: > = above
!!!RDF**kern: < = below
!!!system-decoration: [(s1,s2,s3)][(s4,s5)]
!!!ENC: Filip Voros
!!!END: 2022-08-08
!!!ENC: Julita Ruszuk
!!!END: 2022-09-04!!!YEC: Copyright 2022 Narodowy Instytut Fryderyka Chopina (https://polishscores.org)
!!!YEM: Licence CC BY 4.0 (https://creativecommons.org/licenses/by/4.0)
